X:1
T:Forth Bridge, The
R:reel
M:4/4
L:1/8
K:Dmaj
|:D2 FD A,DFD|A,DFA Bdcd|A,2 CE GECE|edcB AGFE|
EDFD ADFD|A,DFA BcdA|GFGA BcdB|AGFE EDD||
g|:fafd AFDg|fafd AFDf|gfge cAce|gfed cdef|
gafg efde|cdBc ABFA|GFGA BcdB|AGFE D3:||
